svgs/sharp-solid/arrows-to-dot.svg

<svg xmlns="http://www.w3.org/2000/svg" viewBox="0 0 512 512"><!--! Font Awesome Pro 6.6.0 by @fontawesome - https://fontawesome.com License - https://fontawesome.com/license (Commercial License) Copyright 2024 Fonticons, Inc. --><path d="M256 192L160 96l0-32 64 0 0-32 0-32 64 0 0 32 0 32 64 0 0 32-96 96zM416 352l-96-96 96-96 32 0 0 64 32 0 32 0 0 64-32 0-32 0 0 64-32 0zM224 256a32 32 0 1 1 64 0 32 32 0 1 1 -64 0zm32 64l96 96 0 32-64 0 0 32 0 32-64 0 0-32 0-32-64 0 0-32 96-96zM96 352l-32 0 0-64-32 0L0 288l0-64 32 0 32 0 0-64 32 0 96 96L96 352z"/></svg>

<svg xmlns="http://www.w3.org/2000/svg" viewBox="0 0 512 512"><!--! Font Awesome Pro 6.5.2 by @fontawesome - https://fontawesome.com License - https://fontawesome.com/license (Commercial License) Copyright 2024 Fonticons, Inc. --><path d="M256 192L160 96V64h64V32 0h64V32 64h64V96l-96 96zM416 352l-96-96 96-96h32v64h32l32 0v64H480 448v64H416zM224 256a32 32 0 1 1 64 0 32 32 0 1 1 -64 0zm32 64l96 96v32H288v32 32H224V480 448H160V416l96-96zM96 352H64l0-64H32 0l0-64 32 0H64l0-64H96l96 96L96 352z"/></svg>
